assets/4_hearts.svg

<svg width="822" height="1122" fill="none" xmlns="http://www.w3.org/2000/svg"><rect width="822" height="1122" rx="50" fill="#F1F7EE"/><path d="M226.999 1063.6v17c0 .93-.467 1.63-1.4 2.1-2.867 1.53-6.434 2.83-10.7 3.9-4.2 1.07-8.667 1.6-13.4 1.6-4.667 0-9.134-.9-13.4-2.7-4.267-1.8-7.667-4.33-10.2-7.6-4.867-6.4-7.3-14.73-7.3-25 0-6.27.933-11.77 2.8-16.5 1.933-4.8 4.466-8.53 7.6-11.2 6.133-5.2 13.166-7.8 21.1-7.8 8 0 14.866 1.77 20.6 5.3.933.53 1.4 1.27 1.4 2.2v12.5c0 1-.5 1.5-1.5 1.5h-5.7c-1 0-1.467-.5-1.4-1.5l.3-6.7c-4.2-3-8.767-4.5-13.7-4.5-4.867 0-8.8 1.23-11.8 3.7-2.934 2.4-4.967 5.4-6.1 9-1.067 3.53-1.6 7.83-1.6 12.9 0 5 .6 9.5 1.8 13.5 1.266 4 3.5 7.33 6.7 10 3.266 2.67 7.466 4 12.6 4 5.2 0 9.533-1.17 13-3.5v-12.2h-6.4c-1 0-1.5-.5-1.5-1.5v-5c0-1 .5-1.5 1.5-1.5h22c1 0 1.5.5 1.5 1.5v5c0 1-.5 1.5-1.5 1.5h-5.3Zm29.431 15.5h6.3c1 0 1.5.5 1.5 1.5v4.9c0 1-.5 1.5-1.5 1.5h-23.8c-1 0-1.5-.5-1.5-1.5v-4.9c0-1 .5-1.5 1.5-1.5h6.3v-33.4h-5.4c-1 0-1.5-.5-1.5-1.5v-5.2c0-1 .5-1.5 1.5-1.5h15.1c1 0 1.5.5 1.5 1.5v40.1Zm-12.1-50.5c-1.267-1.33-1.9-3.03-1.9-5.1s.633-3.77 1.9-5.1c1.333-1.4 3.067-2.1 5.2-2.1 2.2 0 3.933.7 5.2 2.1 1.333 1.33 2 3.03 2 5.1s-.667 3.77-2 5.1c-1.333 1.33-3.1 2-5.3 2-2.133 0-3.833-.67-5.1-2Zm40.895 17.5c1.133-2.67 2.966-4.93 5.5-6.8 2.533-1.93 5.3-2.9 8.3-2.9 3 0 5.3.27 6.9.8.8.27 1.2.87 1.2 1.8v13.5c0 1-.5 1.5-1.5 1.5h-6.5c-1 0-1.467-.5-1.4-1.5l.4-5.8c-.334-.07-.9-.1-1.7-.1-3.067 0-5.6 1.27-7.6 3.8-2 2.47-3 5.8-3 10v18.7h11c1 0 1.5.5 1.5 1.5v4.9c0 1-.5 1.5-1.5 1.5h-27.5c-1 0-1.5-.5-1.5-1.5v-4.9c0-1 .5-1.5 1.5-1.5h5.3v-33.4h-5.4c-1 0-1.5-.5-1.5-1.5v-5.2c0-1 .5-1.5 1.5-1.5h13.2c.933 0 1.5.5 1.7 1.5l1.1 7.1Zm45.717-32.2v65.2h6.3c1 0 1.5.5 1.5 1.5v4.9c0 1-.5 1.5-1.5 1.5h-23.8c-1 0-1.5-.5-1.5-1.5v-4.9c0-1 .5-1.5 1.5-1.5h6.3v-58.5h-5.4c-1 0-1.5-.5-1.5-1.5v-5.2c0-1 .5-1.5 1.5-1.5h15.1c1 0 1.5.5 1.5 1.5Zm14.394 37.9c0-4.4 1.7-8.07 5.1-11 3.4-2.93 7.7-4.4 12.9-4.4s9.7.6 13.5 1.8c.934.27 1.4.87 1.4 1.8v10.6c0 1-.5 1.5-1.5 1.5h-5.8c-1.066 0-1.5-.5-1.3-1.5l.5-5.1c-2-1.07-4.2-1.6-6.6-1.6-5.333 0-8 1.87-8 5.6 0 1.93.867 3.47 2.6 4.6 1.734 1.13 3.834 2.07 6.3 2.8 2.467.67 4.934 1.47 7.4 2.4 2.534.87 4.667 2.4 6.4 4.6 1.734 2.13 2.6 4.87 2.6 8.2 0 5.07-1.766 9.03-5.3 11.9-3.533 2.8-8.5 4.2-14.9 4.2-4.466 0-9.166-.67-14.1-2-.866-.27-1.3-.9-1.3-1.9v-10.6c0-1 .5-1.5 1.5-1.5h5.8c1 0 1.467.5 1.4 1.5l-.3 5.2c1.8 1.33 4.367 2 7.7 2 5.934 0 8.9-2.1 8.9-6.3 0-2.13-.866-3.8-2.6-5-1.666-1.27-3.733-2.23-6.2-2.9a184.3 184.3 0 0 1-7.3-2.2c-2.466-.87-4.566-2.33-6.3-4.4-1.666-2.13-2.5-4.9-2.5-8.3Zm108.06 27.3h4.3c1 0 1.5.5 1.5 1.5v4.9c0 1-.5 1.5-1.5 1.5h-11.3c-.866 0-1.366-.5-1.5-1.5l-.8-5.9c-3.4 5.73-8.833 8.6-16.3 8.6-6.533 0-11.566-2.03-15.1-6.1-3.533-4.13-5.3-10.5-5.3-19.1 0-8.67 2.034-15.27 6.1-19.8 4.134-4.53 9.434-6.8 15.9-6.8 2.934 0 5.534.57 7.8 1.7 2.267 1.07 3.934 2.37 5 3.9v-21.3h-5.3c-1 0-1.5-.5-1.5-1.5v-5.3c0-1 .5-1.5 1.5-1.5h15c1 0 1.5.5 1.5 1.5v65.2Zm-11.2-10.9v-17.6c-.866-1.33-2.4-2.57-4.6-3.7-2.133-1.13-4.3-1.7-6.5-1.7-8.266 0-12.4 5.6-12.4 16.8 0 8.6 1.867 13.97 5.6 16.1 1.6.93 3.8 1.4 6.6 1.4s5.367-1.03 7.7-3.1c2.4-2.07 3.6-4.8 3.6-8.2Zm40.001-22.1c1.134-2.67 2.967-4.93 5.5-6.8 2.534-1.93 5.3-2.9 8.3-2.9 3 0 5.3.27 6.9.8.8.27 1.2.87 1.2 1.8v13.5c0 1-.5 1.5-1.5 1.5h-6.5c-1 0-1.466-.5-1.4-1.5l.4-5.8c-.333-.07-.9-.1-1.7-.1-3.066 0-5.6 1.27-7.6 3.8-2 2.47-3 5.8-3 10v18.7h11c1 0 1.5.5 1.5 1.5v4.9c0 1-.5 1.5-1.5 1.5h-27.5c-1 0-1.5-.5-1.5-1.5v-4.9c0-1 .5-1.5 1.5-1.5h5.3v-33.4h-5.4c-1 0-1.5-.5-1.5-1.5v-5.2c0-1 .5-1.5 1.5-1.5h13.2c.934 0 1.5.5 1.7 1.5l1.1 7.1Zm45.717 33h6.3c1 0 1.5.5 1.5 1.5v4.9c0 1-.5 1.5-1.5 1.5h-23.8c-1 0-1.5-.5-1.5-1.5v-4.9c0-1 .5-1.5 1.5-1.5h6.3v-33.4h-5.4c-1 0-1.5-.5-1.5-1.5v-5.2c0-1 .5-1.5 1.5-1.5h15.1c1 0 1.5.5 1.5 1.5v40.1Zm-12.1-50.5c-1.266-1.33-1.9-3.03-1.9-5.1s.634-3.77 1.9-5.1c1.334-1.4 3.067-2.1 5.2-2.1 2.2 0 3.934.7 5.2 2.1 1.334 1.33 2 3.03 2 5.1s-.666 3.77-2 5.1c-1.333 1.33-3.1 2-5.3 2-2.133 0-3.833-.67-5.1-2Zm23.395 15.7v-5.3c0-1 .5-1.5 1.5-1.5h13.6c.867 0 1.4.5 1.6 1.5l.9 5.8c3.733-5.6 9.067-8.4 16-8.4 10.333 0 15.5 5.67 15.5 17v25.7h5.8c1 0 1.5.5 1.5 1.5v4.9c0 1-.5 1.5-1.5 1.5h-21.8c-1 0-1.5-.5-1.5-1.5v-4.9c0-1 .5-1.5 1.5-1.5h4.8v-20.7c0-4.2-.533-7.27-1.6-9.2-1.067-1.93-3.267-2.9-6.6-2.9-3.333 0-6.1 1-8.3 3-2.2 2-3.3 4.27-3.3 6.8v23h6.2c1 0 1.5.5 1.5 1.5v4.9c0 1-.5 1.5-1.5 1.5h-22.7c-1 0-1.5-.5-1.5-1.5v-4.9c0-1 .5-1.5 1.5-1.5h5.3v-33.4h-5.4c-1 0-1.5-.47-1.5-1.4Zm78.452-30.4v39.9h5.1l15.5-15.2c.733-.73 1.6-1.1 2.6-1.1h7.8c1 0 1.5.5 1.5 1.5v5.2c0 1-.5 1.5-1.5 1.5h-6.1l-11 10.7 13.7 22.7h5.9c1 0 1.5.5 1.5 1.5v4.9c0 1-.5 1.5-1.5 1.5h-12.9c-.934 0-1.7-.43-2.3-1.3l-15-24.2h-3.3v17.6h5.3c1 0 1.5.5 1.5 1.5v4.9c0 1-.5 1.5-1.5 1.5h-21.8c-1 0-1.5-.5-1.5-1.5v-4.9c0-1 .5-1.5 1.5-1.5h5.3v-58.6h-5.4c-1 0-1.5-.5-1.5-1.5v-5.1c0-1 .5-1.5 1.5-1.5h15.1c1 0 1.5.5 1.5 1.5ZM197.138 226.5h-24.9v38.7c0 2.2-.4 3.7-1.2 4.5-.8.8-2.3 1.2-4.5 1.2h-21.6c-2.2 0-3.7-.4-4.5-1.2-.8-.8-1.2-2.3-1.2-4.5v-38.7h-73.2c-2.2 0-3.7-.4-4.5-1.2-.8-.8-1.2-2.3-1.2-4.5v-13.2c0-4 1-7.5 3-10.5l71.1-114.6c2-3.2 4.9-4.8 8.7-4.8h23.7c2.2 0 3.7.4 4.5 1.2.8.8 1.2 2.3 1.2 4.5v117.9h24.6c2.2 0 3.7.4 4.5 1.2.8.8 1.2 2.3 1.2 4.5v13.8c0 2.2-.4 3.7-1.2 4.5-.8.8-2.3 1.2-4.5 1.2Zm-57.6-113.7-54.6 88.5h54.6v-88.5Z" fill="#000"/><path d="M172.289 328.69a26.362 26.362 0 0 0-28.682-5.691 26.3 26.3 0 0 0-8.537 5.691l-5.071 5.057-5.071-5.057a26.356 26.356 0 0 0-18.61-7.687 26.355 26.355 0 0 0-18.61 7.687A26.21 26.21 0 0 0 80 347.249a26.21 26.21 0 0 0 7.708 18.559l5.071 5.058 33.689 33.597a5 5 0 0 0 7.061 0l33.689-33.597 5.071-5.058a26.222 26.222 0 0 0 5.707-8.514 26.184 26.184 0 0 0-5.707-28.604Z" fill="#F7081D"/><mask id="a" style="mask-type:alpha" maskUnits="userSpaceOnUse" x="130" y="321" width="50" height="85"><path fill="#D9D9D9" d="M130 321h50v84.916h-50z"/></mask><g mask="url(#a)"><path d="M172.289 328.69a26.362 26.362 0 0 0-28.682-5.691 26.3 26.3 0 0 0-8.537 5.691l-5.071 5.057-5.071-5.057a26.356 26.356 0 0 0-18.61-7.687 26.355 26.355 0 0 0-18.61 7.687A26.21 26.21 0 0 0 80 347.249a26.21 26.21 0 0 0 7.708 18.559l5.071 5.058 33.689 33.597a5 5 0 0 0 7.061 0l33.689-33.597 5.071-5.058a26.222 26.222 0 0 0 5.707-8.514 26.184 26.184 0 0 0-5.707-28.604Z" fill="#DC1021"/></g><path d="M562.395 432.53a94.225 94.225 0 0 0-30.565-20.375 94.417 94.417 0 0 0-72.115 0 94.203 94.203 0 0 0-30.565 20.375l-18.155 18.105-18.154-18.105c-17.669-17.621-41.634-27.521-66.622-27.521-24.989 0-48.954 9.9-66.623 27.521A93.838 93.838 0 0 0 232 498.972a93.834 93.834 0 0 0 27.596 66.442l18.154 18.105 119.122 118.799c7.806 7.785 20.44 7.785 28.246 0l119.123-118.799 18.154-18.105a93.929 93.929 0 0 0 20.43-30.482 93.713 93.713 0 0 0 0-71.92 93.929 93.929 0 0 0-20.43-30.482Z" fill="#F7081D"/><mask id="b" style="mask-type:alpha" maskUnits="userSpaceOnUse" x="411" y="405" width="179" height="304"><path fill="#D9D9D9" d="M411 405h179v304H411z"/></mask><g mask="url(#b)"><path d="M562.395 432.53a94.225 94.225 0 0 0-30.565-20.375 94.417 94.417 0 0 0-72.115 0 94.203 94.203 0 0 0-30.565 20.375l-18.155 18.105-18.154-18.105c-17.669-17.621-41.634-27.521-66.622-27.521-24.989 0-48.954 9.9-66.623 27.521A93.838 93.838 0 0 0 232 498.972a93.834 93.834 0 0 0 27.596 66.442l18.154 18.105 119.122 118.799c7.806 7.785 20.44 7.785 28.246 0l119.123-118.799 18.154-18.105a93.929 93.929 0 0 0 20.43-30.482 93.713 93.713 0 0 0 0-71.92 93.929 93.929 0 0 0-20.43-30.482Z" fill="#DC1021"/></g></svg>

<svg width="822" height="1122" viewBox="0 0 822 1122" fill="none" xmlns="http://www.w3.org/2000/svg">
<rect width="822" height="1122" rx="50" fill="#F1F7EE"/>
<path d="M226.999 1063.6V1080.6C226.999 1081.53 226.532 1082.23 225.599 1082.7C222.732 1084.23 219.165 1085.53 214.899 1086.6C210.699 1087.67 206.232 1088.2 201.499 1088.2C196.832 1088.2 192.365 1087.3 188.099 1085.5C183.832 1083.7 180.432 1081.17 177.899 1077.9C173.032 1071.5 170.599 1063.17 170.599 1052.9C170.599 1046.63 171.532 1041.13 173.399 1036.4C175.332 1031.6 177.865 1027.87 180.999 1025.2C187.132 1020 194.165 1017.4 202.099 1017.4C210.099 1017.4 216.965 1019.17 222.699 1022.7C223.632 1023.23 224.099 1023.97 224.099 1024.9V1037.4C224.099 1038.4 223.599 1038.9 222.599 1038.9H216.899C215.899 1038.9 215.432 1038.4 215.499 1037.4L215.799 1030.7C211.599 1027.7 207.032 1026.2 202.099 1026.2C197.232 1026.2 193.299 1027.43 190.299 1029.9C187.365 1032.3 185.332 1035.3 184.199 1038.9C183.132 1042.43 182.599 1046.73 182.599 1051.8C182.599 1056.8 183.199 1061.3 184.399 1065.3C185.665 1069.3 187.899 1072.63 191.099 1075.3C194.365 1077.97 198.565 1079.3 203.699 1079.3C208.899 1079.3 213.232 1078.13 216.699 1075.8V1063.6H210.299C209.299 1063.6 208.799 1063.1 208.799 1062.1V1057.1C208.799 1056.1 209.299 1055.6 210.299 1055.6H232.299C233.299 1055.6 233.799 1056.1 233.799 1057.1V1062.1C233.799 1063.1 233.299 1063.6 232.299 1063.6H226.999ZM256.43 1079.1H262.73C263.73 1079.1 264.23 1079.6 264.23 1080.6V1085.5C264.23 1086.5 263.73 1087 262.73 1087H238.93C237.93 1087 237.43 1086.5 237.43 1085.5V1080.6C237.43 1079.6 237.93 1079.1 238.93 1079.1C238.93 1079.1 241.03 1079.1 245.23 1079.1V1045.7H239.83C238.83 1045.7 238.33 1045.2 238.33 1044.2V1039C238.33 1038 238.83 1037.5 239.83 1037.5H254.93C255.93 1037.5 256.43 1038 256.43 1039V1079.1ZM244.33 1028.6C243.063 1027.27 242.43 1025.57 242.43 1023.5C242.43 1021.43 243.063 1019.73 244.33 1018.4C245.663 1017 247.397 1016.3 249.53 1016.3C251.73 1016.3 253.463 1017 254.73 1018.4C256.063 1019.73 256.73 1021.43 256.73 1023.5C256.73 1025.57 256.063 1027.27 254.73 1028.6C253.397 1029.93 251.63 1030.6 249.43 1030.6C247.297 1030.6 245.597 1029.93 244.33 1028.6ZM285.225 1046.1C286.358 1043.43 288.191 1041.17 290.725 1039.3C293.258 1037.37 296.025 1036.4 299.025 1036.4C302.025 1036.4 304.325 1036.67 305.925 1037.2C306.725 1037.47 307.125 1038.07 307.125 1039V1052.5C307.125 1053.5 306.625 1054 305.625 1054H299.125C298.125 1054 297.658 1053.5 297.725 1052.5L298.125 1046.7C297.791 1046.63 297.225 1046.6 296.425 1046.6C293.358 1046.6 290.825 1047.87 288.825 1050.4C286.825 1052.87 285.825 1056.2 285.825 1060.4V1079.1H296.825C297.825 1079.1 298.325 1079.6 298.325 1080.6V1085.5C298.325 1086.5 297.825 1087 296.825 1087H269.325C268.325 1087 267.825 1086.5 267.825 1085.5V1080.6C267.825 1079.6 268.325 1079.1 269.325 1079.1H274.625V1045.7H269.225C268.225 1045.7 267.725 1045.2 267.725 1044.2V1039C267.725 1038 268.225 1037.5 269.225 1037.5H282.425C283.358 1037.5 283.925 1038 284.125 1039L285.225 1046.1ZM330.942 1013.9V1079.1H337.242C338.242 1079.1 338.742 1079.6 338.742 1080.6V1085.5C338.742 1086.5 338.242 1087 337.242 1087H313.442C312.442 1087 311.942 1086.5 311.942 1085.5V1080.6C311.942 1079.6 312.442 1079.1 313.442 1079.1H319.742V1020.6H314.342C313.342 1020.6 312.842 1020.1 312.842 1019.1V1013.9C312.842 1012.9 313.342 1012.4 314.342 1012.4H329.442C330.442 1012.4 330.942 1012.9 330.942 1013.9ZM345.336 1051.8C345.336 1047.4 347.036 1043.73 350.436 1040.8C353.836 1037.87 358.136 1036.4 363.336 1036.4C368.536 1036.4 373.036 1037 376.836 1038.2C377.77 1038.47 378.236 1039.07 378.236 1040V1050.6C378.236 1051.6 377.736 1052.1 376.736 1052.1H370.936C369.87 1052.1 369.436 1051.6 369.636 1050.6L370.136 1045.5C368.136 1044.43 365.936 1043.9 363.536 1043.9C358.203 1043.9 355.536 1045.77 355.536 1049.5C355.536 1051.43 356.403 1052.97 358.136 1054.1C359.87 1055.23 361.97 1056.17 364.436 1056.9C366.903 1057.57 369.37 1058.37 371.836 1059.3C374.37 1060.17 376.503 1061.7 378.236 1063.9C379.97 1066.03 380.836 1068.77 380.836 1072.1C380.836 1077.17 379.07 1081.13 375.536 1084C372.003 1086.8 367.036 1088.2 360.636 1088.2C356.17 1088.2 351.47 1087.53 346.536 1086.2C345.67 1085.93 345.236 1085.3 345.236 1084.3V1073.7C345.236 1072.7 345.736 1072.2 346.736 1072.2H352.536C353.536 1072.2 354.003 1072.7 353.936 1073.7L353.636 1078.9C355.436 1080.23 358.003 1080.9 361.336 1080.9C367.27 1080.9 370.236 1078.8 370.236 1074.6C370.236 1072.47 369.37 1070.8 367.636 1069.6C365.97 1068.33 363.903 1067.37 361.436 1066.7C359.036 1066.03 356.603 1065.3 354.136 1064.5C351.67 1063.63 349.57 1062.17 347.836 1060.1C346.17 1057.97 345.336 1055.2 345.336 1051.8ZM453.396 1079.1H457.696C458.696 1079.1 459.196 1079.6 459.196 1080.6V1085.5C459.196 1086.5 458.696 1087 457.696 1087H446.396C445.53 1087 445.03 1086.5 444.896 1085.5L444.096 1079.6C440.696 1085.33 435.263 1088.2 427.796 1088.2C421.263 1088.2 416.23 1086.17 412.696 1082.1C409.163 1077.97 407.396 1071.6 407.396 1063C407.396 1054.33 409.43 1047.73 413.496 1043.2C417.63 1038.67 422.93 1036.4 429.396 1036.4C432.33 1036.4 434.93 1036.97 437.196 1038.1C439.463 1039.17 441.13 1040.47 442.196 1042V1020.7H436.896C435.896 1020.7 435.396 1020.2 435.396 1019.2V1013.9C435.396 1012.9 435.896 1012.4 436.896 1012.4H451.896C452.896 1012.4 453.396 1012.9 453.396 1013.9V1079.1ZM442.196 1068.2V1050.6C441.33 1049.27 439.796 1048.03 437.596 1046.9C435.463 1045.77 433.296 1045.2 431.096 1045.2C422.83 1045.2 418.696 1050.8 418.696 1062C418.696 1070.6 420.563 1075.97 424.296 1078.1C425.896 1079.03 428.096 1079.5 430.896 1079.5C433.696 1079.5 436.263 1078.47 438.596 1076.4C440.996 1074.33 442.196 1071.6 442.196 1068.2ZM482.197 1046.1C483.331 1043.43 485.164 1041.17 487.697 1039.3C490.231 1037.37 492.997 1036.4 495.997 1036.4C498.997 1036.4 501.297 1036.67 502.897 1037.2C503.697 1037.47 504.097 1038.07 504.097 1039V1052.5C504.097 1053.5 503.597 1054 502.597 1054H496.097C495.097 1054 494.631 1053.5 494.697 1052.5L495.097 1046.7C494.764 1046.63 494.197 1046.6 493.397 1046.6C490.331 1046.6 487.797 1047.87 485.797 1050.4C483.797 1052.87 482.797 1056.2 482.797 1060.4V1079.1H493.797C494.797 1079.1 495.297 1079.6 495.297 1080.6V1085.5C495.297 1086.5 494.797 1087 493.797 1087H466.297C465.297 1087 464.797 1086.5 464.797 1085.5V1080.6C464.797 1079.6 465.297 1079.1 466.297 1079.1H471.597V1045.7H466.197C465.197 1045.7 464.697 1045.2 464.697 1044.2V1039C464.697 1038 465.197 1037.5 466.197 1037.5H479.397C480.331 1037.5 480.897 1038 481.097 1039L482.197 1046.1ZM527.914 1079.1H534.214C535.214 1079.1 535.714 1079.6 535.714 1080.6V1085.5C535.714 1086.5 535.214 1087 534.214 1087H510.414C509.414 1087 508.914 1086.5 508.914 1085.5V1080.6C508.914 1079.6 509.414 1079.1 510.414 1079.1C510.414 1079.1 512.514 1079.1 516.714 1079.1V1045.7H511.314C510.314 1045.7 509.814 1045.2 509.814 1044.2V1039C509.814 1038 510.314 1037.5 511.314 1037.5H526.414C527.414 1037.5 527.914 1038 527.914 1039V1079.1ZM515.814 1028.6C514.548 1027.27 513.914 1025.57 513.914 1023.5C513.914 1021.43 514.548 1019.73 515.814 1018.4C517.148 1017 518.881 1016.3 521.014 1016.3C523.214 1016.3 524.948 1017 526.214 1018.4C527.548 1019.73 528.214 1021.43 528.214 1023.5C528.214 1025.57 527.548 1027.27 526.214 1028.6C524.881 1029.93 523.114 1030.6 520.914 1030.6C518.781 1030.6 517.081 1029.93 515.814 1028.6ZM539.209 1044.3V1039C539.209 1038 539.709 1037.5 540.709 1037.5H554.309C555.176 1037.5 555.709 1038 555.909 1039L556.809 1044.8C560.542 1039.2 565.876 1036.4 572.809 1036.4C583.142 1036.4 588.309 1042.07 588.309 1053.4V1079.1H594.109C595.109 1079.1 595.609 1079.6 595.609 1080.6V1085.5C595.609 1086.5 595.109 1087 594.109 1087H572.309C571.309 1087 570.809 1086.5 570.809 1085.5V1080.6C570.809 1079.6 571.309 1079.1 572.309 1079.1H577.109V1058.4C577.109 1054.2 576.576 1051.13 575.509 1049.2C574.442 1047.27 572.242 1046.3 568.909 1046.3C565.576 1046.3 562.809 1047.3 560.609 1049.3C558.409 1051.3 557.309 1053.57 557.309 1056.1V1079.1H563.509C564.509 1079.1 565.009 1079.6 565.009 1080.6V1085.5C565.009 1086.5 564.509 1087 563.509 1087H540.809C539.809 1087 539.309 1086.5 539.309 1085.5V1080.6C539.309 1079.6 539.809 1079.1 540.809 1079.1H546.109V1045.7H540.709C539.709 1045.7 539.209 1045.23 539.209 1044.3ZM617.661 1013.9V1053.8H622.761L638.261 1038.6C638.994 1037.87 639.861 1037.5 640.861 1037.5H648.661C649.661 1037.5 650.161 1038 650.161 1039V1044.2C650.161 1045.2 649.661 1045.7 648.661 1045.7H642.561L631.561 1056.4L645.261 1079.1H651.161C652.161 1079.1 652.661 1079.6 652.661 1080.6V1085.5C652.661 1086.5 652.161 1087 651.161 1087H638.261C637.327 1087 636.561 1086.57 635.961 1085.7L620.961 1061.5H617.661V1079.1H622.961C623.961 1079.1 624.461 1079.6 624.461 1080.6V1085.5C624.461 1086.5 623.961 1087 622.961 1087H601.161C600.161 1087 599.661 1086.5 599.661 1085.5V1080.6C599.661 1079.6 600.161 1079.1 601.161 1079.1H606.461V1020.5H601.061C600.061 1020.5 599.561 1020 599.561 1019V1013.9C599.561 1012.9 600.061 1012.4 601.061 1012.4H616.161C617.161 1012.4 617.661 1012.9 617.661 1013.9Z" fill="black"/>
<path d="M197.138 226.5H172.238V265.2C172.238 267.4 171.838 268.9 171.038 269.7C170.238 270.5 168.738 270.9 166.538 270.9H144.938C142.738 270.9 141.238 270.5 140.438 269.7C139.638 268.9 139.238 267.4 139.238 265.2V226.5H66.0379C63.8379 226.5 62.3379 226.1 61.5379 225.3C60.7379 224.5 60.3379 223 60.3379 220.8V207.6C60.3379 203.6 61.3379 200.1 63.3379 197.1L134.438 82.5C136.438 79.3 139.338 77.7 143.138 77.7H166.838C169.038 77.7 170.538 78.1 171.338 78.9C172.138 79.7 172.538 81.2 172.538 83.4V201.3H197.138C199.338 201.3 200.838 201.7 201.638 202.5C202.438 203.3 202.838 204.8 202.838 207V220.8C202.838 223 202.438 224.5 201.638 225.3C200.838 226.1 199.338 226.5 197.138 226.5ZM139.538 112.8L84.9379 201.3H139.538V112.8Z" fill="black"/>
<path d="M172.289 328.69C169.846 326.252 166.944 324.318 163.751 322.999C160.558 321.679 157.136 321 153.679 321C150.223 321 146.801 321.679 143.607 322.999C140.414 324.318 137.513 326.252 135.07 328.69L129.999 333.747L124.928 328.69C119.992 323.768 113.298 321.003 106.318 321.003C99.3381 321.003 92.644 323.768 87.7084 328.69C82.7728 333.612 80 340.288 80 347.249C80 354.21 82.7728 360.886 87.7084 365.808L92.7794 370.866L126.468 404.463C128.42 406.409 131.578 406.409 133.529 404.463L167.218 370.866L172.289 365.808C174.734 363.372 176.673 360.478 177.996 357.294C179.319 354.109 180 350.696 180 347.249C180 343.802 179.319 340.389 177.996 337.205C176.673 334.02 174.734 331.127 172.289 328.69Z" fill="#F7081D"/>
<mask id="mask0_1023_4745" style="mask-type:alpha" maskUnits="userSpaceOnUse" x="130" y="321" width="50" height="85">
<rect x="130" y="321" width="50" height="84.9162" fill="#D9D9D9"/>
</mask>
<g mask="url(#mask0_1023_4745)">
<path d="M172.289 328.69C169.846 326.252 166.944 324.318 163.751 322.999C160.558 321.679 157.136 321 153.679 321C150.223 321 146.801 321.679 143.607 322.999C140.414 324.318 137.513 326.252 135.07 328.69L129.999 333.747L124.928 328.69C119.992 323.768 113.298 321.003 106.318 321.003C99.3381 321.003 92.644 323.768 87.7084 328.69C82.7728 333.612 80 340.288 80 347.249C80 354.21 82.7728 360.886 87.7084 365.808L92.7794 370.866L126.468 404.463C128.42 406.409 131.578 406.409 133.529 404.463L167.218 370.866L172.289 365.808C174.734 363.372 176.673 360.478 177.996 357.294C179.319 354.109 180 350.696 180 347.249C180 343.802 179.319 340.389 177.996 337.205C176.673 334.02 174.734 331.127 172.289 328.69Z" fill="#DC1021"/>
</g>
<path d="M562.395 432.53C553.647 423.802 543.261 416.879 531.83 412.155C520.398 407.431 508.146 405 495.772 405C483.398 405 471.146 407.431 459.715 412.155C448.283 416.879 437.897 423.802 429.15 432.53L410.995 450.635L392.841 432.53C375.172 414.909 351.207 405.009 326.219 405.009C301.23 405.009 277.265 414.909 259.596 432.53C241.927 450.152 232 474.052 232 498.972C232 523.893 241.927 547.793 259.596 565.414L277.75 583.519L396.872 702.318C404.678 710.103 417.312 710.103 425.118 702.318L544.241 583.519L562.395 565.414C571.146 556.69 578.089 546.332 582.825 534.932C587.562 523.532 590 511.312 590 498.972C590 486.632 587.562 474.413 582.825 463.012C578.089 451.612 571.146 441.254 562.395 432.53Z" fill="#F7081D"/>
<mask id="mask1_1023_4745" style="mask-type:alpha" maskUnits="userSpaceOnUse" x="411" y="405" width="179" height="304">
<rect x="411" y="405" width="179" height="304" fill="#D9D9D9"/>
</mask>
<g mask="url(#mask1_1023_4745)">
<path d="M562.395 432.53C553.647 423.802 543.261 416.879 531.83 412.155C520.398 407.431 508.146 405 495.772 405C483.398 405 471.146 407.431 459.715 412.155C448.283 416.879 437.897 423.802 429.15 432.53L410.995 450.635L392.841 432.53C375.172 414.909 351.207 405.009 326.219 405.009C301.23 405.009 277.265 414.909 259.596 432.53C241.927 450.152 232 474.052 232 498.972C232 523.893 241.927 547.793 259.596 565.414L277.75 583.519L396.872 702.318C404.678 710.103 417.312 710.103 425.118 702.318L544.241 583.519L562.395 565.414C571.146 556.69 578.089 546.332 582.825 534.932C587.562 523.532 590 511.312 590 498.972C590 486.632 587.562 474.413 582.825 463.012C578.089 451.612 571.146 441.254 562.395 432.53Z" fill="#DC1021"/>
</g>
</svg>
